build/images/header/wifi.svg

<svg width="29" height="29" viewBox="0 0 29 29" fill="none" xmlns="http://www.w3.org/2000/svg">
<path d="M24.807 12.1696C24.8419 8.08094 21.3596 4.33274 17.0444 3.81443C16.9586 3.80425 16.8651 3.78876 16.7661 3.77237C16.5525 3.73698 16.3316 3.70059 16.1087 3.70059C15.2243 3.70059 14.9878 4.32184 14.9256 4.69236C14.8651 5.0526 14.9228 5.35512 15.0969 5.5919C15.3898 5.99015 15.9051 6.06085 16.319 6.1175C16.4404 6.13425 16.5548 6.14983 16.6507 6.17136C20.5276 7.03766 21.8331 8.39967 22.4711 12.2437C22.4867 12.3376 22.4937 12.4534 22.5012 12.5761C22.529 13.0356 22.587 13.9916 23.6148 13.9916H23.6149C23.7004 13.9916 23.7924 13.9842 23.8881 13.9697C24.8452 13.8242 24.8152 12.9503 24.8008 12.5305C24.7968 12.4122 24.7929 12.3004 24.8029 12.226C24.8056 12.2072 24.8069 12.1884 24.807 12.1696Z" fill="#BEBEBE"/>
<path d="M15.8578 2.31364C15.9726 2.32192 16.0814 2.32985 16.1719 2.34372C22.5383 3.32278 25.4661 6.33914 26.2775 12.7553C26.2912 12.8644 26.2934 12.9974 26.2957 13.1383C26.3038 13.6396 26.3204 14.6824 27.4403 14.704L27.4751 14.7044C27.8263 14.7044 28.1057 14.5985 28.3056 14.3893C28.6542 14.0247 28.6299 13.483 28.6102 13.0476C28.6055 12.9408 28.6009 12.8402 28.6021 12.7521C28.683 6.19 23.0028 0.239507 16.4466 0.0182246C16.4194 0.0173239 16.3934 0.0187649 16.3672 0.0224575C16.3543 0.0243488 16.3305 0.0266904 16.2896 0.0266904C16.2242 0.0266904 16.1438 0.0210165 16.0585 0.0152525C15.9554 0.00822766 15.8385 0.00012207 15.7199 0.00012207C14.6758 0.00012207 14.4773 0.742234 14.452 1.18462C14.3934 2.207 15.3825 2.27896 15.8578 2.31364Z" fill="#BEBEBE"/>
<path d="M25.9702 21.0479C25.8349 20.9445 25.6949 20.8375 25.5639 20.732C24.8688 20.1726 24.1293 19.657 23.4141 19.1583C23.2657 19.0549 23.1172 18.9514 22.9694 18.8477C22.0533 18.2042 21.2296 17.8915 20.4515 17.8915C19.4034 17.8915 18.4897 18.4706 17.7355 19.6125C17.4014 20.1187 16.996 20.3649 16.4964 20.3649C16.201 20.3649 15.8654 20.2806 15.4989 20.1142C12.5419 18.7733 10.4304 16.7174 9.22291 14.0035C8.63922 12.6918 8.82844 11.8345 9.85569 11.1367C10.439 10.7407 11.5248 10.0037 11.4479 8.59222C11.3608 6.98938 7.82425 2.16665 6.33417 1.61889C5.70329 1.38689 5.04043 1.38473 4.36046 1.61348C2.64748 2.18934 1.41822 3.20065 0.805258 4.53789C0.21292 5.83001 0.239668 7.3472 0.882622 8.92545C2.74132 13.4885 5.35457 17.4669 8.65003 20.75C11.8757 23.9637 15.8403 26.5963 20.4337 28.5741C20.8477 28.7523 21.282 28.8494 21.5991 28.9203C21.7071 28.9446 21.8004 28.9654 21.8684 28.984C21.9058 28.9942 21.9444 28.9997 21.983 29L22.0193 29.0002C22.0194 29.0002 22.0193 29.0002 22.0195 29.0002C24.1799 29.0002 26.7739 27.026 27.5706 24.7754C28.2686 22.8047 26.9942 21.8305 25.9702 21.0479Z" fill="#BEBEBE"/>
<path d="M16.8133 7.52609C16.4434 7.53545 15.6736 7.55455 15.4035 8.33854C15.2772 8.70491 15.2923 9.02301 15.4485 9.28401C15.6778 9.66695 16.1172 9.7843 16.5168 9.8487C17.966 10.0812 18.7102 10.8826 18.8591 12.3704C18.9283 13.0642 19.3954 13.5486 19.9952 13.5486H19.9953C20.0396 13.5486 20.0849 13.546 20.1301 13.5405C20.8515 13.4547 21.2012 12.9247 21.1696 11.9653C21.1811 10.9641 20.6571 9.82744 19.7659 8.92205C18.8717 8.01386 17.7938 7.5024 16.8133 7.52609Z" fill="#BEBEBE"/>
</svg>

<svg width="29" height="29" fill="none" xmlns="http://www.w3.org/2000/svg"><path d="M24.807 12.17c.035-4.09-3.447-7.837-7.763-8.356a5.448 5.448 0 01-.278-.042 4.035 4.035 0 00-.657-.071c-.885 0-1.121.62-1.183.991-.06.36-.003.663.17.9.294.398.81.469 1.223.526.121.016.236.032.332.053 3.877.867 5.182 2.229 5.82 6.073.016.094.023.21.03.332.028.46.086 1.416 1.114 1.416.085 0 .177-.008.273-.022.957-.146.927-1.02.913-1.44-.004-.118-.008-.23.002-.304a.412.412 0 00.004-.056z" fill="#BEBEBE"/><path d="M15.858 2.314a4.2 4.2 0 01.314.03c6.366.979 9.294 3.995 10.105 10.411.014.11.016.242.019.383.008.502.024 1.544 1.144 1.566h.035c.351 0 .63-.106.83-.315.35-.364.325-.906.305-1.341-.005-.107-.01-.208-.008-.296C28.683 6.19 23.002.24 16.447.018c-.028 0-.054 0-.08.004a.548.548 0 01-.077.005c-.066 0-.146-.006-.232-.012C15.955.008 15.838 0 15.72 0c-1.044 0-1.243.742-1.268 1.185-.059 1.022.93 1.094 1.406 1.129zM25.97 21.048a18.29 18.29 0 01-.406-.316c-.695-.56-1.435-1.075-2.15-1.574a166.37 166.37 0 01-.445-.31c-.916-.644-1.74-.956-2.518-.956-1.048 0-1.961.579-2.716 1.72-.334.507-.739.753-1.239.753-.295 0-.63-.084-.997-.25-2.957-1.342-5.069-3.398-6.276-6.111-.584-1.312-.395-2.17.633-2.867.583-.396 1.669-1.133 1.592-2.545C11.36 6.99 7.824 2.167 6.334 1.62c-.63-.232-1.294-.234-1.974-.006C2.647 2.19 1.418 3.201.805 4.538.213 5.83.24 7.348.883 8.925 2.74 13.488 5.355 17.467 8.65 20.75c3.226 3.214 7.19 5.846 11.784 7.824.414.178.848.275 1.165.346.108.025.201.045.27.064a.45.45 0 00.114.016h.036c2.16 0 4.755-1.974 5.552-4.225.698-1.97-.577-2.944-1.6-3.727zM16.813 7.526c-.37.01-1.14.029-1.41.813-.126.366-.11.684.045.945.23.383.67.5 1.069.565 1.449.232 2.193 1.034 2.342 2.521.07.694.536 1.179 1.136 1.179.045 0 .09-.003.135-.008.722-.086 1.071-.616 1.04-1.576.011-1-.513-2.138-1.404-3.043-.894-.908-1.972-1.42-2.953-1.396z" fill="#BEBEBE"/></svg>
